X:1
T:Title
%%score { ( 1 3 ) | ( 2 4 ) }
L:1/8
M:6/8
K:C
V:1 treble nm="Grand Piano"
V:3 treble 
V:2 bass 
V:4 bass 
V:1
 z3 z2[Q:1/4=84] [EG] | [Ec]>[EB][EA] [EG][DF]E | D^CD A2 A | ADE [EG][_E^F][D=F] | %4
 [CE]3- [CE] z [EG] | [Ec]>[EB][Ec] [Ge][Gd][Gc] |[M:7/8] [GB]>AA c3 c | %7
[M:3/4] c>G E[B,G] [B,D][CE] |[M:5/8] C-C- C3 |[M:1/8] [Ec] |[M:3/4] c>c cc Ac | %11
 c2- [Fc-] [Ec]2 [Ec] | [Ge]>[Gd] [Gc][^FA] [Fc][Fe] |[M:7/8] d-d-d- d3 z | %14
[M:3/4] [Ec]>[EB] [Ec][Ge] [Gd][Gc] |[M:7/8] [GB]>AA c3 c |[M:13/16] cGG[^FA][Ge]3/2[=Fd] | %17
[M:5/8] c-c- c3 |] %18
V:2
 z3 z2 [C,C] | [C,G,]>[C,G,][C,G,] [C,G,][C,G,][C,G,C] | %2
 [F,A,][F,A,][F,A,] [F,CD]2[K:treble] [F,CF] | [G,B,F][K:bass][G,B,][G,C] [G,,G,][A,,G,][B,,G,] | %4
 [C,G,]3- [C,G,] z [C,C] | [C,G,]>[C,G,][C,G,] [C,C][D,B,][E,C] | %6
[M:7/8] [F,C]>[F,CF][F,CF] [F,A,F]3 [^F,A,_E] |[M:3/4] [G,CE]>[G,CE] [G,C][G,,D,] [G,,F,][G,,G,] | %8
[M:5/8] [C,E,]-[C,E,]- [C,E,]3 |[M:1/8] [C,G,] | %10
[M:3/4] [F,A,F]>[F,A,F] [F,A,F][F,A,F] [F,CF][F,A,F] | G,2 A, G,2 [C,G,] | %12
 [C,C]>[D,C] [E,C][D,C] [D,A,][D,C] |[M:7/8][K:treble] [G,B,G]2 [A,C] [B,D]3 [G,F] | %14
[M:3/4][K:bass] [C,G,]>[C,G,] [C,G,][C,C] [D,B,][E,C] | %15
[M:7/8] [F,C]>[F,CF][F,CF] [F,A,F]3 [^F,A,_E] |[M:13/16] [G,CE][G,CE][E,C][D,C][G,B,]3/2[G,B,] | %17
[M:5/8] z2 A, G,2 |] %18
V:3
 x6 | x6 | x6 | x6 | x6 | x6 |[M:7/8] x7 |[M:3/4] x6 |[M:5/8] x5 |[M:1/8] x |[M:3/4] x6 | %11
 E2 z2 z2 | x6 |[M:7/8] z2 ^F =F3 G |[M:3/4] x6 |[M:7/8] x7 |[M:13/16] x13/2 |[M:5/8] [CE]2 F E2 |] %18
V:4
 x6 | x6 | x5[K:treble] x | x[K:bass] x5 | x6 | x6 |[M:7/8] x7 |[M:3/4] x6 |[M:5/8] x5 |[M:1/8] x | %10
[M:3/4] x6 | C,6 | x6 |[M:7/8][K:treble] x7 |[M:3/4][K:bass] x6 |[M:7/8] x7 |[M:13/16] x13/2 | %17
[M:5/8] C,-C,- C,3 |] %18

